X: 16027
T: Green Bridge, The
R: reel
M: 4/4
K: Gmajor
DGBG FGAc|BcdB cdef|~g2dg egdB|
cedB AGEG|DGBG FGAc|BcdB cdef|
~g2dg egdB|1 cAFA G2GE:|2 cAFA ~G2GA||
~B2dB eBdB|cdeg fgaf|~g2dg egdB|1 cedB AGEG|
~B2dB eBdB|cdeg fgaf|~g2dg egdB|
cAFA ~G3A:|2 cedB ~A2GF|GBdB cdeg|
fgaf ~g3a|bgdg egdB|cAFA ~G2GE||

